X:1
T:[ID 2-55b]
T:[ID 2-55b]
T:Bezeichnung standardisiert: Tantz Tantz Lustig \"Ahnlich in dieser Quelle: ID 5-9;
T:Urheber unbekannt Datum in der hier transkribierten schriftlichen Quelle: 1792
C:Urheber unbekannt
C:Datum in der hier transkribierten schriftlichen Quelle: 1792
L:1/8
M:2/4
K:D
V:1 treble 
V:1
 A | dddf | eeeg | fdge | dA FD | dddf | eeeg | fdge | d3 :: (d/e/) | ff f(e/f/) | g3 f | %12
 ee e(d/e/) | f3 A | dddf | eeeg | fdge | d3 :| %18

